PortableApps/LibreOfficePortable/App/libreoffice/help/media/icon-themes/cmd/sc_mailmergesavedocuments.svg

<svg viewBox="0 0 16 16" xmlns="http://www.w3.org/2000/svg">/&amp;amp;gt;<path d="m1 0c-.554 0-1 .446-1 1v14c0 .554.446 1 1 1h6v-1h-6v-14h10v6h1v-6c0-.554-.446-1-1-1z" fill="#808080"/><path d="m1 1v14h6v-7c0-.554.446-1 1-1h3v-6z" fill="#fff"/><path d="m3 2c-.554 0-1 .446-1 1v12c0 .554.446 1 1 1h4v-1h-4v-12h10v4h1v-4c0-.554-.446-1-1-1z" fill="#808080"/><path d="m3 3v12h4v-7c0-.554.446-1 1-1h5v-4z" fill="#fff"/><circle cx="11.5" cy="16.5" fill="#fff" r="0"/><circle cx="11.5" cy="16.5" fill="#500" r="0"/><rect fill="#8959ab" height="8" ry="1" width="8" x="8" y="8"/><g fill="#fff"><rect height="3" rx=".5" width="6" x="9" y="9"/><path d="m10 12.999999c-.554 0-1 .446-1 1v1c0 .554.446 1 1 1v-2h1v2h2c.554 0 1-.446 1-1v-1c0-.554-.446-1-1-1z"/></g></svg>

<svg viewBox="0 0 16 16" xmlns="http://www.w3.org/2000/svg">
  <path
     style="fill:#ffffff"
     d="M 1 1 L 1 15 L 7 15 L 7 8 C 7 7.446 7.446 7 8 7 L 11 7 L 11 1 L 1 1 z "
     />
  <path
     style="fill:#808080"
     d="M 1 0 C 0.446 0 0 0.446 0 1 L 0 15 C 0 15.554 0.446 16 1 16 L 7 16 L 7 15 L 1 15 L 1 1 L 11 1 L 11 7 L 12 7 L 12 1 C 12 0.446 11.554 0 11 0 L 1 0 z "
     />
  <rect
     style="fill:#8959ab"
     width="8"
     height="8"
     x="8"
     y="8"
     ry="1" />
  <rect
     style="fill:#ffffff"
     y="9"
     x="9"
     width="6"
     height="3"
     rx="0.5"
     />
  <path
     style="fill:#ffffff"
     d="m 10,12.999999 c -0.554,0 -1,0.446 -1,1 v 1 c 0,0.554 0.446,1 1,1 v -2 h 1 v 2 h 2 c 0.554,0 1,-0.446 1,-1 v -1 c 0,-0.554 -0.446,-1 -1,-1 z"
     />
</svg>
